X:1
T:Title
%%score ( 1 2 ) { 3 | 4 }
L:1/8
Q:1/4=110
M:6/8
K:A
V:1 treble nm="Grand Piano, Soprano"
V:2 treble 
V:3 bass nm="Choir Pad, The Tomb Is Empty Now"
V:4 bass 
V:1
 E A2 B c2 | B A2- A2- A/ z/ | [Ae] [Ae]2 [GB] [GB]2 | [Ac] [GB]2- [GB]2- [GB]/ z/ | E A2 B c2 | %5
w: By~Franklin~Lycurgus~Eiland * * *|||||
 d c2- c2- c/ z/ | A [GB]2 A [Ac]2 | [EB] [EA]2- [EA]2- [EA]/ z/ | z c2- c3 | z B2- B3 | %10
w: |||||
 z c2- c2- c/ z/ | [EB] [FA]2 [FB] [FA]2 | [DF] [CE]2- [CE]2- [CE]/ z/ | z A2- A3 | z c2- c3 | %15
w: |||||
 z c2- c2- c/ z/ | [EA] [EB]2 [CA] [Ec]2 | [EB] [EA]2- [EA]3- | [EA]3 z3 |] %19
w: ||||
V:2
 x6 | x6 | x6 | x6 | x6 | x6 | x6 | x6 | [CE] E2 E E2 | [Ec] E2 E E2 | [EB] E2 E E2 | x6 | x6 | %13
 [CE] C2 C C2 | [DB] E2 E E2 | [Ed] E2 E E2 | x6 | x6 | x6 |] %19
V:3
 A,, C,2 E, A,2 | E, A,,2- A,,2- A,,/ z/ | C C2 E E2 | E E2- E2- E/ z/ | E, C,2 E, A,2 | %5
 A, A,2- A,2- A,/ z/ | C E2 C E2 | D C2- C2- C/ z/ | A, A,2 A, A,2 | A, G,2 G, G,2 | %10
 G, A,2 A, A,2 | A, A,2 A, A,2 | A, A,2 A, A,2 | A, E,2 E, E,2 | G, A,2 A, A,2 | A, A,2 A, A,2 | %16
 A, G,2 A,[K:treble] A,2 | D C2- C3- | C3 z3 |] %19
V:4
 z6 | z6 | A, E,2 E, E,2 | E, E,2- E,2- E,/ z/ | z6 | z6 | A, E,2 E, E,2 | E, A,,2- A,,2- A,,/ z/ | %8
 A,, A,,2 A,, A,,2 | A,, E,2 E, E,2 | .E,3 z3 | C, D,2 D, D,2 | D, A,,2 A,, A,,2 | %13
 A,, A,,2 A,, A,,2 | .E,3 z3 | z6 | C, E,2 E, E,2 | E, A,,2- A,,3- | A,,3 z3 |] %19

